X:1
T:Title
%%score { ( 1 3 4 ) | ( 2 5 6 ) }
L:1/8
M:9/8
K:Ab
V:1 treble nm="Grand Piano"
V:3 treble 
V:4 treble 
V:2 treble 
V:5 treble 
V:6 treble 
V:1
 z3 z2[Q:1/4=100] E EE[CA] | .[Ec]6 z3 | [DB]6 z3 | .B6 z3 |[M:5/8] [CA]-[CA]- [CA]3[K:bass] | %5
[M:2/4] E[K:treble]E E[CA] |[M:9/8] .[Ec]6 z3 | [DB]6 z3 | .B6 z3 |[M:5/8] [CA]-[CA]- [CA]3 | %10
[M:2/4] [FA][FA] [GB][CAc] |[M:9/8] [Ac]3- [Ac]BA [GB]A[DGB] | [Ac]3- [Ac]2 [FA] [FA][GB][Ac] | %13
 [Ac]3- [Ac]B[CA] [EB]A[EB] | [Ac]3- [Ac]2 c eec | e3 c2 c Be[A=d] | [Ge]6 z3 | %17
 z3 z2 [EGB] [EAc]2 [EAc] | [EGB]6 z3 | z3 z2 [Ac] [ce]d[EAc] |[M:5/8] [EGB]-[EGB]- [EGB]3 | %21
[M:2/4] EE E[CA] |[M:9/8] .[Ec]6 z3 | [DB]6 z3 | .B6 z3 | %25
[M:13/8] [CA]-[CA]- [CA]3[K:bass] z z z z z z z2 |] %26
V:2
 z3 z2 C CCA, | A,[K:bass]A,A, z D[A,,A,] [A,,A,]2 [A,,A,] | [E,G,]G,B, E,2 D DD[E,B,D] | %3
 D-[E,D-][E,D-] D-[A,D][E,B,D] DD[E,D] |[M:5/8] E,2 z z2 |[M:2/4][K:treble] CC CA, | %6
[M:9/8] A,[K:bass]A,A, z D[A,,A,] [A,,A,]2 [A,,A,] | [E,G,]G,B, E,2 D DD[E,B,D] | %8
 D-[E,D-][E,D-] D-[A,D][E,B,D] DD[E,D] |[M:5/8] E,2 z z2 |[M:2/4] F,F, F,F, | %11
[M:9/8] z[K:treble] CC z G[F,CF] z F[K:bass]F, | z2 C C2 F, F,F,E, | z3 .A,3 .E,3 | %14
 A,E,C, A,,2[K:treble] [A,A] [A,CA][A,CA][A,A] | [A,CA]3 [A,EA]2 [A,EA] G-[B,G][K:bass][B,,B,] | %16
 [E,B,]3- [E,B,]2 E, E,2 E, | E,3 E,2 E, E,2 E, | E,3- E,2 E, E,2 E, | %19
 z3 z3 .[E,E]3[K:treble][K:bass] |[M:5/8] E,-E,- E,3 |[M:2/4] CC CA, | %22
[M:9/8] A,A,A, z D[A,,A,] [A,,A,]2 [A,,A,] | [E,G,]G,B, E,2 D DD[E,B,D] | %24
 D-[E,D-][E,D-] D-[A,D][E,B,D] DD[E,D] |[M:13/8] .E,3 z z z z z z z z z2 |] %26
V:3
 x9 | z3 z B[CA] [CA][B,G][CA] | z3 G,2 E EEG | z G,G, G,AG GFG |[M:5/8] z z2[K:bass] E,2 | %5
[M:2/4] x[K:treble] x3 |[M:9/8] z3 z B[CA] [CA][B,G][CA] | z3 G,2 E EEG | z G,G, G,AG GFG | %9
[M:5/8] z z2 E,2 |[M:2/4] x4 |[M:9/8] .C3 z3 z3 | .C3 z3 z3 | x9 | x9 | x9 | x9 | x9 | x9 | x9 | %20
[M:5/8] x5 |[M:2/4] x4 |[M:9/8] z3 z B[CA] [CA][B,G][CA] | z3 G,2 E EEG | z G,G, G,AG GFG | %25
[M:13/8] z z2[K:bass] .E,3 z z z z z z2 |] %26
V:4
 x9 | z3 .E,3 z3 | x9 | x9 |[M:5/8] x3[K:bass] x2 |[M:2/4] x[K:treble] x3 |[M:9/8] z3 .E,3 z3 | %7
 x9 | x9 |[M:5/8] x5 |[M:2/4] x4 |[M:9/8] x9 | x9 | x9 | x9 | x9 | x9 | x9 | x9 | x9 |[M:5/8] x5 | %21
[M:2/4] x4 |[M:9/8] z3 .E,3 z3 | x9 | x9 |[M:13/8] x3[K:bass] x10 |] %26
V:5
 x9 | z3[K:bass] .A,,3 z3 | x9 | .[E,G,]3 .E,3 .[E,B,]3 |[M:5/8] A,,C,E, A,,2 | %5
[M:2/4][K:treble] x4 |[M:9/8] z3[K:bass] .A,,3 z3 | x9 | .[E,G,]3 .E,3 .[E,B,]3 | %9
[M:5/8] A,,C,E, A,,2 |[M:2/4] x4 |[M:9/8] z3[K:treble] .C3 .[F,D]3[K:bass] | F,6 z3 | %13
 A,,C,E, z EA,, z CE, | x5[K:treble] x4 | z3 z3 .[B,E]3[K:bass] | x9 | x9 | x9 | %19
 E,3 E,2 [E,E] z[K:treble] B[K:bass]E, |[M:5/8] x5 |[M:2/4] x4 |[M:9/8] z3 .A,,3 z3 | x9 | %24
 .[E,G,]3 .E,3 .[E,B,]3 |[M:13/8] A,,C,E, .A,,3 z z z z z z2 |] %26
V:6
 x9 | x[K:bass] x8 | x9 | x9 |[M:5/8] x5 |[M:2/4][K:treble] x4 |[M:9/8] x[K:bass] x8 | x9 | x9 | %9
[M:5/8] x5 |[M:2/4] x4 |[M:9/8] F,6[K:treble] z3[K:bass] | x9 | x9 | x5[K:treble] x4 | %15
 x8[K:bass] x | x9 | x9 | x9 | x7[K:treble] x[K:bass] x |[M:5/8] x5 |[M:2/4] x4 |[M:9/8] x9 | x9 | %24
 x9 |[M:13/8] x13 |] %26

